X:17282
T:The Three Scones Of Boxty
R:Reel
S:Dessie Wilkinson
H:
N:
D:Milltown Recital
Z:Adrian Scahill
M:4/4
L:1/8
K:D
EF|GEE2 cBAc|BAGE A2EF|GFe2 cBAc|BAGE EFD2:||
c2ed cBAc|BAGE A3B|c2ed cBAc|BAGE EFD2|\
c2ed cBAc|BAGE A3A|(3Bcd ef g2ed|cAGE D4||
